groups/alkanes/decyl.svg

<?xml version='1.0' encoding='iso-8859-1'?>
<svg version='1.1' baseProfile='full'
              xmlns='http://www.w3.org/2000/svg'
                      xmlns:rdkit='http://www.rdkit.org/xml'
                      xmlns:xlink='http://www.w3.org/1999/xlink'
                  xml:space='preserve'
width='256px' height='256px' viewBox='0 0 256 256'>
<!-- END OF HEADER -->
<rect style='opacity:1.0;fill:#FFFFFF;stroke:none' width='256.0' height='256.0' x='0.0' y='0.0'> </rect>
<path class='bond-0 atom-0 atom-1' d='M 18.7,127.2 L 39.2,115.4' style='fill:none;fill-rule:evenodd;stroke:#000000;stroke-width:2.0px;stroke-linecap:butt;stroke-linejoin:miter;stroke-opacity:1' />
<path class='bond-1 atom-1 atom-2' d='M 39.2,115.4 L 59.6,127.3' style='fill:none;fill-rule:evenodd;stroke:#000000;stroke-width:2.0px;stroke-linecap:butt;stroke-linejoin:miter;stroke-opacity:1' />
<path class='bond-2 atom-2 atom-3' d='M 59.6,127.3 L 80.0,115.5' style='fill:none;fill-rule:evenodd;stroke:#000000;stroke-width:2.0px;stroke-linecap:butt;stroke-linejoin:miter;stroke-opacity:1' />
<path class='bond-3 atom-3 atom-4' d='M 80.0,115.5 L 100.5,127.3' style='fill:none;fill-rule:evenodd;stroke:#000000;stroke-width:2.0px;stroke-linecap:butt;stroke-linejoin:miter;stroke-opacity:1' />
<path class='bond-4 atom-4 atom-5' d='M 100.5,127.3 L 120.9,115.5' style='fill:none;fill-rule:evenodd;stroke:#000000;stroke-width:2.0px;stroke-linecap:butt;stroke-linejoin:miter;stroke-opacity:1' />
<path class='bond-5 atom-5 atom-6' d='M 120.9,115.5 L 141.4,127.3' style='fill:none;fill-rule:evenodd;stroke:#000000;stroke-width:2.0px;stroke-linecap:butt;stroke-linejoin:miter;stroke-opacity:1' />
<path class='bond-6 atom-6 atom-7' d='M 141.4,127.3 L 161.8,115.5' style='fill:none;fill-rule:evenodd;stroke:#000000;stroke-width:2.0px;stroke-linecap:butt;stroke-linejoin:miter;stroke-opacity:1' />
<path class='bond-7 atom-7 atom-8' d='M 161.8,115.5 L 182.3,127.4' style='fill:none;fill-rule:evenodd;stroke:#000000;stroke-width:2.0px;stroke-linecap:butt;stroke-linejoin:miter;stroke-opacity:1' />
<path class='bond-8 atom-8 atom-9' d='M 182.3,127.4 L 202.7,115.6' style='fill:none;fill-rule:evenodd;stroke:#000000;stroke-width:2.0px;stroke-linecap:butt;stroke-linejoin:miter;stroke-opacity:1' />
<path class='bond-9 atom-9 atom-10' d='M 202.7,115.6 L 218.1,124.5' style='fill:none;fill-rule:evenodd;stroke:#000000;stroke-width:2.0px;stroke-linecap:butt;stroke-linejoin:miter;stroke-opacity:1' />
<path d='M 38.1,116.0 L 39.2,115.4 L 40.2,116.0' style='fill:none;stroke:#000000;stroke-width:2.0px;stroke-linecap:butt;stroke-linejoin:miter;stroke-miterlimit:10;stroke-opacity:1;' />
<path d='M 58.6,126.7 L 59.6,127.3 L 60.6,126.7' style='fill:none;stroke:#000000;stroke-width:2.0px;stroke-linecap:butt;stroke-linejoin:miter;stroke-miterlimit:10;stroke-opacity:1;' />
<path d='M 79.0,116.1 L 80.0,115.5 L 81.1,116.1' style='fill:none;stroke:#000000;stroke-width:2.0px;stroke-linecap:butt;stroke-linejoin:miter;stroke-miterlimit:10;stroke-opacity:1;' />
<path d='M 99.5,126.7 L 100.5,127.3 L 101.5,126.7' style='fill:none;stroke:#000000;stroke-width:2.0px;stroke-linecap:butt;stroke-linejoin:miter;stroke-miterlimit:10;stroke-opacity:1;' />
<path d='M 119.9,116.1 L 120.9,115.5 L 122.0,116.1' style='fill:none;stroke:#000000;stroke-width:2.0px;stroke-linecap:butt;stroke-linejoin:miter;stroke-miterlimit:10;stroke-opacity:1;' />
<path d='M 140.4,126.7 L 141.4,127.3 L 142.4,126.7' style='fill:none;stroke:#000000;stroke-width:2.0px;stroke-linecap:butt;stroke-linejoin:miter;stroke-miterlimit:10;stroke-opacity:1;' />
<path d='M 160.8,116.1 L 161.8,115.5 L 162.9,116.1' style='fill:none;stroke:#000000;stroke-width:2.0px;stroke-linecap:butt;stroke-linejoin:miter;stroke-miterlimit:10;stroke-opacity:1;' />
<path d='M 181.3,126.8 L 182.3,127.4 L 183.3,126.8' style='fill:none;stroke:#000000;stroke-width:2.0px;stroke-linecap:butt;stroke-linejoin:miter;stroke-miterlimit:10;stroke-opacity:1;' />
<path d='M 201.7,116.2 L 202.7,115.6 L 203.5,116.0' style='fill:none;stroke:#000000;stroke-width:2.0px;stroke-linecap:butt;stroke-linejoin:miter;stroke-miterlimit:10;stroke-opacity:1;' />
<path class='atom-1' d='M24.5883,137.465 C25.3555,137.023 24.7661,136 23.9989,136.442 C23.2316,136.884 22.6422,135.861 23.4094,135.419 C24.1767,134.977 23.5873,133.954 22.82,134.396 C22.0528,134.839 21.4634,133.816 22.2306,133.373 C22.9978,132.931 22.4084,131.908 21.6412,132.351 C20.874,132.793 20.2846,131.77 21.0518,131.328 C21.819,130.885 21.2296,129.863 20.4624,130.305 C19.6951,130.747 19.1057,129.724 19.873,129.282 C20.6402,128.84 20.0508,127.817 19.2835,128.259 C18.5163,128.701 17.9269,127.678 18.6941,127.236 C19.4614,126.794 18.872,125.771 18.1047,126.213 C17.3375,126.655 16.7481,125.632 17.5153,125.19 C18.2825,124.748 17.6931,123.725 16.9259,124.167 C16.1587,124.609 15.5692,123.586 16.3365,123.144 C17.1037,122.702 16.5143,121.679 15.7471,122.121 C14.9798,122.563 14.3904,121.54 15.1577,121.098 C15.9249,120.656 15.3355,119.633 14.5682,120.075 C13.801,120.517 13.2116,119.494 13.9788,119.052 C14.7461,118.61 14.1566,117.587 13.3894,118.029 C12.6222,118.471 12.0328,117.448 12.8,117.006' style='fill:none;stroke:#7F7F7F;stroke-width:2.0px;stroke-linecap:butt;stroke-linejoin:miter;stroke-opacity:1' />
<text x='218.9' y='134.5' class='atom-10' style='font-size:14px;font-style:normal;font-weight:normal;fill-opacity:1;stroke:none;font-family:sans-serif;text-anchor:start;fill:#000000' >C</text>
<text x='228.7' y='134.5' class='atom-10' style='font-size:14px;font-style:normal;font-weight:normal;fill-opacity:1;stroke:none;font-family:sans-serif;text-anchor:start;fill:#000000' >H</text>
<text x='238.5' y='140.2' class='atom-10' style='font-size:9px;font-style:normal;font-weight:normal;fill-opacity:1;stroke:none;font-family:sans-serif;text-anchor:start;fill:#000000' >3</text>
</svg>

<svg height="256" viewBox="0 0 256 256" width="256" xmlns="http://www.w3.org/2000/svg"><path d="m0 0h256v256h-256z" fill="#fff"/><g fill="none" stroke-width="2"><path d="m18.7 127.2 20.5-11.8" stroke="#000"/><path d="m39.2 115.4 20.4 11.9" stroke="#000"/><path d="m59.6 127.3 20.4-11.8" stroke="#000"/><path d="m80 115.5 20.5 11.8" stroke="#000"/><path d="m100.5 127.3 20.4-11.8" stroke="#000"/><path d="m120.9 115.5 20.5 11.8" stroke="#000"/><path d="m141.4 127.3 20.4-11.8" stroke="#000"/><path d="m161.8 115.5 20.5 11.9" stroke="#000"/><path d="m182.3 127.4 20.4-11.8" stroke="#000"/><path d="m202.7 115.6 15.4 8.9" stroke="#000"/><path d="m38.1 116 1.1-.6 1 .6" stroke="#000" stroke-miterlimit="10"/><path d="m58.6 126.7 1 .6 1-.6" stroke="#000" stroke-miterlimit="10"/><path d="m79 116.1 1-.6 1.1.6" stroke="#000" stroke-miterlimit="10"/><path d="m99.5 126.7 1 .6 1-.6" stroke="#000" stroke-miterlimit="10"/><path d="m119.9 116.1 1-.6 1.1.6" stroke="#000" stroke-miterlimit="10"/><path d="m140.4 126.7 1 .6 1-.6" stroke="#000" stroke-miterlimit="10"/><path d="m160.8 116.1 1-.6 1.1.6" stroke="#000" stroke-miterlimit="10"/><path d="m181.3 126.8 1 .6 1-.6" stroke="#000" stroke-miterlimit="10"/><path d="m201.7 116.2 1-.6.8.4" stroke="#000" stroke-miterlimit="10"/><path d="m24.588 137.465c.768-.442.178-1.465-.589-1.023s-1.357-.581-.59-1.023c.768-.442.178-1.465-.589-1.023-.767.443-1.357-.58-.589-1.023.767-.442.177-1.465-.59-1.022-.767.442-1.356-.581-.589-1.023.767-.443.178-1.465-.59-1.023-.767.442-1.356-.581-.589-1.023s.178-1.465-.589-1.023c-.768.442-1.357-.581-.59-1.023s.178-1.465-.589-1.023-1.357-.581-.59-1.023c.768-.442.178-1.465-.589-1.023s-1.357-.581-.589-1.023c.767-.442.177-1.465-.59-1.023s-1.357-.581-.589-1.023c.767-.442.178-1.465-.59-1.023-.767.442-1.356-.581-.589-1.023s.178-1.465-.59-1.023c-.767.442-1.356-.581-.589-1.023" stroke="#7f7f7f"/></g><text font-family="sans-serif" font-size="14" x="218.9" y="134.5">C</text><text font-family="sans-serif" font-size="14" x="228.7" y="134.5">H</text><text font-family="sans-serif" font-size="9" x="238.5" y="140.2">3</text></svg>
